Gurmukhi/0A0A.svg

<svg enable-background="new 0 0 336 592" viewBox="0 0 336 592" xmlns="http://www.w3.org/2000/svg"><path d="m183.147003 116.675354c38.404267-2.377312 64.279297 25.992004 70.153504 61.403763.710998 4.285995 1.044571 8.577652 1.194961 12.906936.11734 3.378067 1.710159 5.092621 5.380509 4.88823 4.152893-.231278 8.330352.020691 12.494262-.069931 2.678009-.058274 4.317292.895645 5.215821 3.577102 1.373748 4.099823 3.201049 8.046296 4.620605 12.132615 1.269379 3.653976.173462 5.777328-4.113281 5.693069-5.8302-.114609-11.667786.090546-17.495301-.079208-3.585784-.104462-5.255554.774093-5.577545 4.905273-1.173187 15.0522-4.234146 29.583161-12.734756 42.558563-5.345169 8.158936-12.340134 14.32486-20.565262 19.299866-1.234833.746887-2.80574 1.097717-3.40097 2.710907.992813 1.758911 2.889297 2.188629 4.426986 3.110535 25.673905 15.392364 34.767197 38.537048 27.704911 65.959076-5.491776 21.324005-21.314789 32.998352-42.55626 36.494964-35.285156 5.808319-61.620864-8.861358-80.756721-37.734497-14.721451-22.212402-21.787361-47.250305-25.569664-73.411041-2.97036-20.544891-3.712296-41.084564-1.434128-61.725311.049423-.447846-.213325-.930146-.398148-1.665863-5.750617-.961609-11.566421-.403336-17.33992-.380692-3.163406.012436-4.955795-1.139038-5.948532-4.094467-1.271515-3.78537-2.888702-7.455673-4.130813-11.249588-1.378334-4.210022-.129921-6.003464 4.316002-6.082733 7.329879-.130707 14.674263-.283417 21.991569.042953 4.117928.18367 5.961014-1.284881 6.912331-5.218857 3.93396-16.268112 11.115234-31.060684 21.700729-44.0009 14.318154-17.503219 32.358437-28.478844 55.909111-29.970764m-33.616607 233.295319c17.478088 19.723541 38.692443 25.449218 60.43048 16.309936 21.754639-9.14624 27.586548-39.777588 10.944306-56.601715-10.491501-10.60611-23.743454-13.782654-37.803818-14.178223-16.9785-.47763-33.982178.008454-50.97023-.242187-4.785652-.070587-5.34864 2.142059-4.596161 5.84259 3.599213 17.700073 10.126373 34.100556 21.995423 48.869599m74.721038-97.227921c7.202256-8.888275 11.045472-19.157867 13.027878-30.342682.756317-4.267151-.620453-5.274216-4.527054-5.264755-33.956817.082245-67.914032.103729-101.870712.000961-4.149162-.012558-5.308243 1.683792-5.685516 5.586655-1.344658 13.910675-2.598465 27.762741-1.001259 41.772888.811958 7.122131.341614 7.186554 7.734779 7.191223 16.6456.010529 33.29187-.082031 49.93663.03833 16.775986.121308 30.854477-5.684478 42.385254-18.98262m-90.561767-66.579544c-.775788 3.002197-2.591461 5.743149-2.475937 8.993225 2.251892 1.040588 4.445907.607391 6.568054.611084 21.13794.036759 42.275971.019699 63.413986.018753 10.652222-.000488 21.30539-.078338 31.956116.047897 3.3638.039856 4.777649-.982498 4.658768-4.587524-.149536-4.535431-.980469-8.909012-2.007523-13.273209-9.561249-40.627914-50.607635-46.023513-75.963028-27.921432-12.478607 8.908874-20.054352 21.544525-26.150436 36.111206z"/><path d="m240.512573 442.537872c2.119049-1.368866 3.921097-2.564209 5.742951-3.728546.266967-.170593.628158-.193786 1.296463-.386078 3.314178 4.028443 5.225265 8.992523 7.597015 13.663178 1.27684 2.514404-1.073715 3.528839-2.605652 4.659302-14.788147 10.912628-31.556747 16.233184-49.76384 16.859436-18.868743.649078-36.632507-3.533204-52.806076-13.597626-4.669937-2.905945-9.027984-6.198151-13.032455-10.008942-2.266617-2.157043-2.237503-3.938782-.712357-6.498657 4.577149-7.682251 4.385163-7.570007 11.740784-3.025543 30.277084 18.706024 61.059174 19.109802 92.543167 2.063476z"/><path d="m191.184113 438.261505c-17.786255-1.628784-33.475327-7.100647-46.855011-18.680267-3.262574-2.823639-3.759751-4.982941-1.198624-8.247467 1.416-1.804871 1.929596-4.247956 3.837341-5.745392 1.705292-.406006 2.885697.696808 4.12378 1.431183 27.648925 16.40036 55.354629 15.249725 82.936645.010772 3.867142-2.136566 5.954178-1.963104 7.584473 2.160645.669372 1.693115 1.667923 3.255066 2.500625 4.884888 3.87555 7.585388 3.86528 7.572052-3.744873 11.936767-15.090088 8.654663-31.378952 12.527222-49.184356 12.248871z"/></svg>

<svg version="1.1" id="Layer_1" xmlns="http://www.w3.org/2000/svg" xmlns:xlink="http://www.w3.org/1999/xlink" x="0px" y="0px"
	 width="100%" viewBox="0 0 336 592" enable-background="new 0 0 336 592" xml:space="preserve">
<path fill="#000000" opacity="1.000000" stroke="none" 
	d="
M183.147003,116.675354 
	C221.551270,114.298042 247.426300,142.667358 253.300507,178.079117 
	C254.011505,182.365112 254.345078,186.656769 254.495468,190.986053 
	C254.612808,194.364120 256.205627,196.078674 259.875977,195.874283 
	C264.028870,195.643005 268.206329,195.894974 272.370239,195.804352 
	C275.048248,195.746078 276.687531,196.699997 277.586060,199.381454 
	C278.959808,203.481277 280.787109,207.427750 282.206665,211.514069 
	C283.476044,215.168045 282.380127,217.291397 278.093384,217.207138 
	C272.263184,217.092529 266.425598,217.297684 260.598083,217.127930 
	C257.012299,217.023468 255.342529,217.902023 255.020538,222.033203 
	C253.847351,237.085403 250.786392,251.616364 242.285782,264.591766 
	C236.940613,272.750702 229.945648,278.916626 221.720520,283.891632 
	C220.485687,284.638519 218.914780,284.989349 218.319550,286.602539 
	C219.312363,288.361450 221.208847,288.791168 222.746536,289.713074 
	C248.420441,305.105438 257.513733,328.250122 250.451447,355.672150 
	C244.959671,376.996155 229.136658,388.670502 207.895187,392.167114 
	C172.610031,397.975433 146.274323,383.305756 127.138466,354.432617 
	C112.417015,332.220215 105.351105,307.182312 101.568802,281.021576 
	C98.598442,260.476685 97.856506,239.937012 100.134674,219.296265 
	C100.184097,218.848419 99.921349,218.366119 99.736526,217.630402 
	C93.985909,216.668793 88.170105,217.227066 82.396606,217.249710 
	C79.233200,217.262146 77.440811,216.110672 76.448074,213.155243 
	C75.176559,209.369873 73.559372,205.699570 72.317261,201.905655 
	C70.938927,197.695633 72.187340,195.902191 76.633263,195.822922 
	C83.963142,195.692215 91.307526,195.539505 98.624832,195.865875 
	C102.742760,196.049545 104.585846,194.580994 105.537163,190.647018 
	C109.471123,174.378906 116.652397,159.586334 127.237892,146.646118 
	C141.556046,129.142899 159.596329,118.167274 183.147003,116.675354 
M149.530396,349.970673 
	C167.008484,369.694214 188.222839,375.419891 209.960876,366.280609 
	C231.715515,357.134369 237.547424,326.503021 220.905182,309.678894 
	C210.413681,299.072784 197.161728,295.896240 183.101364,295.500671 
	C166.122864,295.023041 149.119186,295.509125 132.131134,295.258484 
	C127.345482,295.187897 126.782494,297.400543 127.534973,301.101074 
	C131.134186,318.801147 137.661346,335.201630 149.530396,349.970673 
M224.251434,252.742752 
	C231.453690,243.854477 235.296906,233.584885 237.279312,222.400070 
	C238.035629,218.132919 236.658859,217.125854 232.752258,217.135315 
	C198.795441,217.217560 164.838226,217.239044 130.881546,217.136276 
	C126.732384,217.123718 125.573303,218.820068 125.196030,222.722931 
	C123.851372,236.633606 122.597565,250.485672 124.194771,264.495819 
	C125.006729,271.617950 124.536385,271.682373 131.929550,271.687042 
	C148.575150,271.697571 165.221420,271.605011 181.866180,271.725372 
	C198.642166,271.846680 212.720657,266.040894 224.251434,252.742752 
M133.689667,186.163208 
	C132.913879,189.165405 131.098206,191.906357 131.213730,195.156433 
	C133.465622,196.197021 135.659637,195.763824 137.781784,195.767517 
	C158.919724,195.804276 180.057755,195.787216 201.195770,195.786270 
	C211.847992,195.785782 222.501160,195.707932 233.151886,195.834167 
	C236.515686,195.874023 237.929535,194.851669 237.810654,191.246643 
	C237.661118,186.711212 236.830185,182.337631 235.803131,177.973434 
	C226.241882,137.345520 185.195496,131.949921 159.840103,150.052002 
	C147.361496,158.960876 139.785751,171.596527 133.689667,186.163208 
z"/>
<path fill="#000000" opacity="1.000000" stroke="none" 
	d="
M240.512573,442.537872 
	C242.631622,441.169006 244.433670,439.973663 246.255524,438.809326 
	C246.522491,438.638733 246.883682,438.615540 247.551987,438.423248 
	C250.866165,442.451691 252.777252,447.415771 255.149002,452.086426 
	C256.425842,454.600830 254.075287,455.615265 252.543350,456.745728 
	C237.755203,467.658356 220.986603,472.978912 202.779510,473.605164 
	C183.910767,474.254242 166.147003,470.071960 149.973434,460.007538 
	C145.303497,457.101593 140.945450,453.809387 136.940979,449.998596 
	C134.674362,447.841553 134.703476,446.059814 136.228622,443.499939 
	C140.805771,435.817688 140.613785,435.929932 147.969406,440.474396 
	C178.246490,459.180420 209.028580,459.584198 240.512573,442.537872 
z"/>
<path fill="#000000" opacity="1.000000" stroke="none" 
	d="
M191.184113,438.261505 
	C173.397858,436.632721 157.708786,431.160858 144.329102,419.581238 
	C141.066528,416.757599 140.569351,414.598297 143.130478,411.333771 
	C144.546478,409.528900 145.060074,407.085815 146.967819,405.588379 
	C148.673111,405.182373 149.853516,406.285187 151.091599,407.019562 
	C178.740524,423.419922 206.446228,422.269287 234.028244,407.030334 
	C237.895386,404.893768 239.982422,405.067230 241.612717,409.190979 
	C242.282089,410.884094 243.280640,412.446045 244.113342,414.075867 
	C247.988892,421.661255 247.978622,421.647919 240.368469,426.012634 
	C225.278381,434.667297 208.989517,438.539856 191.184113,438.261505 
z"/>
</svg>
